dist/images/src/logo-flitsmeister.svg

<svg width="177" height="39" fill="none" xmlns="http://www.w3.org/2000/svg"><path fill-rule="evenodd" clip-rule="evenodd" d="M54.266 27.796v-15.73h10.098v2.794H57.83v4.158H63v2.684h-5.17v6.094h-3.564zm12.276 0v-16.72h3.168v16.72h-3.168zm6.16 0V16.29h3.168v11.506h-3.168zm1.562-13.068c-.513 0-.942-.165-1.287-.495-.345-.33-.517-.744-.517-1.243 0-.498.172-.913.517-1.243.345-.33.774-.495 1.287-.495.513 0 .946.165 1.298.495.352.33.528.745.528 1.243 0 .499-.176.913-.528 1.243-.352.33-.785.495-1.298.495zm8.734 13.288c-1.217 0-2.141-.308-2.772-.924-.63-.616-.946-1.518-.946-2.706v-5.83h-1.474V16.29h1.474v-2.486h3.168v2.486h2.42v2.266h-2.42V24.1c0 .91.425 1.364 1.276 1.364.455 0 .858-.073 1.21-.22v2.464a5.826 5.826 0 01-1.936.308zm8.513.022c-1.555 0-2.765-.33-3.63-.99-.866-.66-1.328-1.613-1.386-2.86h2.97c.073.543.264.95.572 1.221.308.272.792.407 1.452.407 1.202 0 1.804-.418 1.804-1.254 0-.381-.176-.674-.528-.88-.352-.205-.954-.366-1.804-.484-1.555-.234-2.651-.616-3.29-1.144-.637-.528-.956-1.342-.956-2.442 0-1.144.443-2.027 1.33-2.65.888-.624 1.962-.936 3.224-.936 2.904 0 4.488 1.188 4.752 3.564h-2.926c-.176-.924-.778-1.386-1.804-1.386-.514 0-.913.11-1.2.33-.285.22-.428.506-.428.858 0 .367.157.638.473.814.315.176.898.323 1.749.44 1.554.22 2.687.587 3.399 1.1.71.514 1.067 1.35 1.067 2.508 0 1.232-.422 2.171-1.265 2.816-.844.646-2.035.968-3.575.968zm6.864-.242V16.29h3.19v1.76c.308-.586.77-1.07 1.386-1.452.616-.381 1.327-.572 2.134-.572 1.598 0 2.669.668 3.212 2.002.894-1.334 2.185-2.002 3.872-2.002 1.129 0 2.042.367 2.739 1.1.696.734 1.045 1.834 1.045 3.3v7.37h-3.168v-7.018c0-1.422-.602-2.134-1.804-2.134-.646 0-1.177.206-1.595.616-.418.411-.627.99-.627 1.738v6.798h-3.168v-7.018c0-1.422-.602-2.134-1.804-2.134-.646 0-1.177.206-1.595.616-.418.411-.627.99-.627 1.738v6.798h-3.19zm25.608.242c-1.775 0-3.22-.524-4.334-1.573-1.115-1.048-1.672-2.475-1.672-4.279v-.176c0-1.789.56-3.234 1.683-4.334 1.122-1.1 2.533-1.65 4.235-1.65 1.613 0 2.951.492 4.015 1.474 1.063.983 1.595 2.442 1.595 4.378v.88h-8.294c.044.954.315 1.694.814 2.222.498.528 1.18.792 2.046.792 1.378 0 2.178-.535 2.398-1.606h3.014c-.191 1.247-.763 2.204-1.716 2.871-.954.668-2.215 1.001-3.784 1.001zm-2.728-7.238h5.148c-.103-1.716-.94-2.574-2.508-2.574-.72 0-1.31.224-1.771.671-.462.448-.752 1.082-.87 1.903h.001zm10.428 6.996V16.29h3.168v11.506h-3.168zm1.562-13.068c-.514 0-.943-.165-1.287-.495-.345-.33-.517-.744-.517-1.243 0-.498.172-.913.517-1.243.344-.33.773-.495 1.287-.495.513 0 .946.165 1.298.495.352.33.528.745.528 1.243 0 .499-.176.913-.528 1.243-.352.33-.785.495-1.298.495zm8.712 13.31c-1.555 0-2.765-.33-3.63-.99-.866-.66-1.328-1.613-1.386-2.86h2.97c.073.543.264.95.572 1.221.308.272.792.407 1.452.407 1.202 0 1.804-.418 1.804-1.254 0-.381-.176-.674-.528-.88-.352-.205-.954-.366-1.804-.484-1.555-.234-2.651-.616-3.29-1.144-.637-.528-.956-1.342-.956-2.442 0-1.144.443-2.027 1.33-2.65.888-.624 1.962-.936 3.224-.936 2.904 0 4.488 1.188 4.752 3.564h-2.926c-.176-.924-.778-1.386-1.804-1.386-.514 0-.913.11-1.2.33-.285.22-.428.506-.428.858 0 .367.157.638.473.814.315.176.898.323 1.749.44 1.554.22 2.687.587 3.399 1.1.71.514 1.067 1.35 1.067 2.508 0 1.232-.422 2.171-1.265 2.816-.844.646-2.035.968-3.575.968zm11.066-.022c-1.218 0-2.142-.308-2.772-.924-.631-.616-.946-1.518-.946-2.706v-5.83h-1.474V16.29h1.474v-2.486h3.168v2.486h2.42v2.266h-2.42V24.1c0 .91.425 1.364 1.276 1.364a3.12 3.12 0 001.21-.22v2.464a5.825 5.825 0 01-1.936.308zm9.394.022c-1.775 0-3.22-.524-4.334-1.573-1.115-1.048-1.672-2.475-1.672-4.279v-.176c0-1.789.56-3.234 1.683-4.334 1.122-1.1 2.533-1.65 4.235-1.65 1.613 0 2.951.492 4.015 1.474 1.063.983 1.595 2.442 1.595 4.378v.88h-8.294c.044.954.315 1.694.814 2.222.498.528 1.18.792 2.046.792 1.378 0 2.178-.535 2.398-1.606h3.014c-.191 1.247-.763 2.204-1.716 2.871-.954.668-2.215 1.001-3.784 1.001zm-2.728-7.238h5.148c-.103-1.716-.94-2.574-2.508-2.574-.72 0-1.31.224-1.771.671-.462.448-.752 1.082-.87 1.903h.001zm10.34 6.996V16.29h3.19v2.2c.733-1.569 1.972-2.361 3.718-2.376v2.97c-1.232-.014-2.16.21-2.783.671-.624.462-.935 1.221-.935 2.277v5.764h-3.19zM27.064 0H11.599C7.41 0 5.13 0 2.578 2.6.025 5.2 0 7.475 0 11.7v15.6c0 4.225.025 6.5 2.578 9.1C5.13 39 7.41 39 11.598 39h15.466c4.188 0 6.764 0 9.021-2.6 2.258-2.6 2.578-4.875 2.578-9.1V11.7c0-4.225-.02-6.5-2.578-9.1C33.527 0 31.262 0 27.064 0zm-13.21 19.3h-3.447v-2.39h4.769a31.128 31.128 0 012.294-3.188H7.162v11.556h3.245v-2.79h2.244a20.993 20.993 0 011.204-3.187l-.001-.001zm12.277-5.578l-2.093 6.167L22 13.722h-3.277c-1.763 2.862-2.231 7.851-2.231 11.556h3.245v-7.693l2.725 7.693h3.15l2.663-7.693v7.693H31.5V13.722h-5.37.001z" fill="#B2B2B2"/></svg>

<svg width="177" height="39" viewBox="0 0 177 39" fill="none" xmlns="http://www.w3.org/2000/svg">
<path fill-rule="evenodd" clip-rule="evenodd" d="M54.266 27.796V12.066H64.364V14.86H57.83V19.018H63V21.702H57.83V27.796H54.266ZM66.542 27.796V11.076H69.71V27.796H66.542ZM72.702 27.796V16.29H75.87V27.796H72.702ZM74.264 14.728C73.751 14.728 73.322 14.563 72.977 14.233C72.632 13.903 72.46 13.489 72.46 12.99C72.46 12.492 72.632 12.077 72.977 11.747C73.322 11.417 73.751 11.252 74.264 11.252C74.777 11.252 75.21 11.417 75.562 11.747C75.914 12.077 76.09 12.492 76.09 12.99C76.09 13.489 75.914 13.903 75.562 14.233C75.21 14.563 74.777 14.728 74.264 14.728ZM82.998 28.016C81.781 28.016 80.857 27.708 80.226 27.092C79.596 26.476 79.28 25.574 79.28 24.386V18.556H77.806V16.29H79.28V13.804H82.448V16.29H84.868V18.556H82.448V24.1C82.448 25.01 82.873 25.464 83.724 25.464C84.179 25.464 84.582 25.391 84.934 25.244V27.708C84.3107 27.9193 83.6561 28.0234 82.998 28.016ZM91.511 28.038C89.956 28.038 88.746 27.708 87.881 27.048C87.015 26.388 86.553 25.435 86.495 24.188H89.465C89.538 24.731 89.729 25.138 90.037 25.409C90.345 25.681 90.829 25.816 91.489 25.816C92.691 25.816 93.293 25.398 93.293 24.562C93.293 24.181 93.117 23.888 92.765 23.682C92.413 23.477 91.811 23.316 90.961 23.198C89.406 22.964 88.31 22.582 87.671 22.054C87.034 21.526 86.715 20.712 86.715 19.612C86.715 18.468 87.158 17.585 88.045 16.962C88.933 16.338 90.007 16.026 91.269 16.026C94.173 16.026 95.757 17.214 96.021 19.59H93.095C92.919 18.666 92.317 18.204 91.291 18.204C90.777 18.204 90.378 18.314 90.091 18.534C89.806 18.754 89.663 19.04 89.663 19.392C89.663 19.759 89.82 20.03 90.136 20.206C90.451 20.382 91.034 20.529 91.885 20.646C93.439 20.866 94.572 21.233 95.284 21.746C95.994 22.26 96.351 23.096 96.351 24.254C96.351 25.486 95.929 26.425 95.086 27.07C94.242 27.716 93.051 28.038 91.511 28.038ZM98.375 27.796V16.29H101.565V18.05C101.873 17.464 102.335 16.98 102.951 16.598C103.567 16.217 104.278 16.026 105.085 16.026C106.683 16.026 107.754 16.694 108.297 18.028C109.191 16.694 110.482 16.026 112.169 16.026C113.298 16.026 114.211 16.393 114.908 17.126C115.604 17.86 115.953 18.96 115.953 20.426V27.796H112.785V20.778C112.785 19.356 112.183 18.644 110.981 18.644C110.335 18.644 109.804 18.85 109.386 19.26C108.968 19.671 108.759 20.25 108.759 20.998V27.796H105.591V20.778C105.591 19.356 104.989 18.644 103.787 18.644C103.141 18.644 102.61 18.85 102.192 19.26C101.774 19.671 101.565 20.25 101.565 20.998V27.796H98.375ZM123.983 28.038C122.208 28.038 120.763 27.514 119.649 26.465C118.534 25.417 117.977 23.99 117.977 22.186V22.01C117.977 20.221 118.537 18.776 119.66 17.676C120.782 16.576 122.193 16.026 123.895 16.026C125.508 16.026 126.846 16.518 127.91 17.5C128.973 18.483 129.505 19.942 129.505 21.878V22.758H121.211C121.255 23.712 121.526 24.452 122.025 24.98C122.523 25.508 123.205 25.772 124.071 25.772C125.449 25.772 126.249 25.237 126.469 24.166H129.483C129.292 25.413 128.72 26.37 127.767 27.037C126.813 27.705 125.552 28.038 123.983 28.038ZM121.255 20.8H126.403C126.3 19.084 125.463 18.226 123.895 18.226C123.175 18.226 122.585 18.45 122.124 18.897C121.662 19.345 121.372 19.979 121.254 20.8H121.255ZM131.683 27.796V16.29H134.851V27.796H131.683ZM133.245 14.728C132.731 14.728 132.302 14.563 131.958 14.233C131.613 13.903 131.441 13.489 131.441 12.99C131.441 12.492 131.613 12.077 131.958 11.747C132.302 11.417 132.731 11.252 133.245 11.252C133.758 11.252 134.191 11.417 134.543 11.747C134.895 12.077 135.071 12.492 135.071 12.99C135.071 13.489 134.895 13.903 134.543 14.233C134.191 14.563 133.758 14.728 133.245 14.728ZM141.957 28.038C140.402 28.038 139.192 27.708 138.327 27.048C137.461 26.388 136.999 25.435 136.941 24.188H139.911C139.984 24.731 140.175 25.138 140.483 25.409C140.791 25.681 141.275 25.816 141.935 25.816C143.137 25.816 143.739 25.398 143.739 24.562C143.739 24.181 143.563 23.888 143.211 23.682C142.859 23.477 142.257 23.316 141.407 23.198C139.852 22.964 138.756 22.582 138.117 22.054C137.48 21.526 137.161 20.712 137.161 19.612C137.161 18.468 137.604 17.585 138.491 16.962C139.379 16.338 140.453 16.026 141.715 16.026C144.619 16.026 146.203 17.214 146.467 19.59H143.541C143.365 18.666 142.763 18.204 141.737 18.204C141.223 18.204 140.824 18.314 140.537 18.534C140.252 18.754 140.109 19.04 140.109 19.392C140.109 19.759 140.266 20.03 140.582 20.206C140.897 20.382 141.48 20.529 142.331 20.646C143.885 20.866 145.018 21.233 145.73 21.746C146.44 22.26 146.797 23.096 146.797 24.254C146.797 25.486 146.375 26.425 145.532 27.07C144.688 27.716 143.497 28.038 141.957 28.038ZM153.023 28.016C151.805 28.016 150.881 27.708 150.251 27.092C149.62 26.476 149.305 25.574 149.305 24.386V18.556H147.831V16.29H149.305V13.804H152.473V16.29H154.893V18.556H152.473V24.1C152.473 25.01 152.898 25.464 153.749 25.464C154.163 25.4717 154.574 25.3969 154.959 25.244V27.708C154.336 27.9193 153.681 28.0234 153.023 28.016ZM162.417 28.038C160.642 28.038 159.197 27.514 158.083 26.465C156.968 25.417 156.411 23.99 156.411 22.186V22.01C156.411 20.221 156.971 18.776 158.094 17.676C159.216 16.576 160.627 16.026 162.329 16.026C163.942 16.026 165.28 16.518 166.344 17.5C167.407 18.483 167.939 19.942 167.939 21.878V22.758H159.645C159.689 23.712 159.96 24.452 160.459 24.98C160.957 25.508 161.639 25.772 162.505 25.772C163.883 25.772 164.683 25.237 164.903 24.166H167.917C167.726 25.413 167.154 26.37 166.201 27.037C165.247 27.705 163.986 28.038 162.417 28.038ZM159.689 20.8H164.837C164.734 19.084 163.897 18.226 162.329 18.226C161.609 18.226 161.019 18.45 160.558 18.897C160.096 19.345 159.806 19.979 159.688 20.8H159.689ZM170.029 27.796V16.29H173.219V18.49C173.952 16.921 175.191 16.129 176.937 16.114V19.084C175.705 19.07 174.777 19.294 174.154 19.755C173.53 20.217 173.219 20.976 173.219 22.032V27.796H170.029ZM27.064 0H11.599C7.41 0 5.13 0 2.578 2.6C0.0250001 5.2 0 7.475 0 11.7V27.3C0 31.525 0.0250001 33.8 2.578 36.4C5.13 39 7.41 39 11.598 39H27.064C31.252 39 33.828 39 36.085 36.4C38.343 33.8 38.663 31.525 38.663 27.3V11.7C38.663 7.475 38.643 5.2 36.085 2.6C33.527 0 31.262 0 27.064 0ZM13.854 19.3H10.407V16.91H15.176C15.8728 15.8001 16.639 14.7353 17.47 13.722H7.162V25.278H10.407V22.488H12.651C12.9653 21.3948 13.368 20.329 13.855 19.301L13.854 19.3ZM26.131 13.722L24.038 19.889L22 13.722H18.723C16.96 16.584 16.492 21.573 16.492 25.278H19.737V17.585L22.462 25.278H25.612L28.275 17.585V25.278H31.5V13.722H26.13H26.131Z" fill="#B2B2B2"/>
</svg>
